X:1
T:Act I Finale
T:Act I Finale
T:Swan Lake, Piano Arrangement for 3 hands
T:Hinci
C:Hinci
%%score { ( 1 4 ) | ( 2 5 ) | 3 }
L:1/8
Q:1/4=76
M:4/4
K:D
V:1 bass nm="Piano" snm="Pno."
V:4 bass 
V:2 bass 
V:5 bass 
V:3 treble 
V:1
!p!"^Andante." !////-![D,F,]4 B,,4 |[K:treble] !>!f4"_marcato." (!>!B!>!c!>!d!>!e) | %2
 (!>!f3 !>!d) (!>!f3 !>!d) | (!>!f3 !>!B) (!>!d!>!B!>!G!>!d) | !>!B4- B !>!e!>!d!>!c | %5
 !>!f4 (!>!B!>!c!>!d!>!e) | (!>!f3 !>!d) (!>!f3 !>!d) | (!>!f3 !>!B) (!>!d!>!B!>!G!>!d) | %8
 !>!B6 !>!B2 |!mp! (c2 d2 e2) (.f.g) |!<(! (a3 g f2) (.g.a) | (b3 a g2) (.a.b)!<)! | %12
!mf!!>(! (c'3 b) (fdcB)!>)! |!mp! (c2 d2 e2) (.f.g) |!<(! (a3 g f2) (.g.a) | (b3 a g2) (.a.b) | %16
 (!>!=c'3 !>!g !>!e2) (!>!g!>!c')!<)! |!f! (!>![cc']3 !>![^G^g]) (!>![cc']3 !>![Ff]) | %18
!ff! [fbf']4 ([Bb][cc'][dd'][ee']) | ([fbf']3 [dd']) ([ff']3 [dd']) | %20
 ([fbd'f']3 [Bb]) ([dfgbd'][^A^a][Gg][dd']) | [B-dfb-]4 ([Bb][cc'][dd'][ee']) | %22
 [fbf']4 ([Bb][cc'][dd'][ee']) | ([fbf']3 [dd']) ([ff']3 [dd']) | %24
 ([fbd'f']3 [Bb]) ([dfgbd'][^A^a][Gg][dd']) |[K:Cb]!mf! [=B^d^f=b]6 [f^f']2 | %26
 ([^g=e'^g']2 [^f^f']2 [^c^c']2) ([^d^d'][=ee']) | [^f=b^f']6 [ff']2 | %28
 ([^g=e'^g']2 [^f^f']2 [^c^c']2) ([^d^d'][=ee']) | [^f=b^f']6 [ff']2 | %30
 ([^g=e'^g']2 [^f^f']2 [^c^c']2) ([^d^d'][=ee']) | [^f^f']2 [ff']4 [=e=e']2- | %32
 [ee']2 [^d^d']4 [^c^c']2 | [=B^d^f=b]2 z2 z2 [f^f']2 | %34
 ([^g=e'^g']2 [^f^f']2 [^c^c']2) ([^d^d'][=ee']) | [^f=b^f']6 [ff']2 | %36
 ([^g=e'^g']2 [^f^f']2 [^c^c']2) ([^d^d'][=ee']) | [^f=b^f']6 [ff']2 | %38
 ([^g=e'^g']2 [^f^f']2 [^c^c']2) ([^d^d'][=ee']) | [^f^f']2 [ff']4 [=e=e']2- | %40
 [ee']2 [^d^d']4 [^c^c']2 |[K:D][Q:1/4=84] [B^db] z z2 [Bd^gb]2 z2 | [^df^a^d']2 z2 [fad'f']2 z2 | %43
 [b^d'f'b']2 z2 [B^d^gb]2 z2 | [^df^a^d']2 z2 [fad'f']2 z2 | %45
 z/4 [b^d'f'b']7/4 z2 z/4 [bd'f'b']7/4 z2 | %46
 z/4 [b^d'f'b']7/4 z/4 [bd'f'b']7/4 z/4 [bd'f'b']7/4 z/4 [bd'f'b']7/4 | %47
 z/4 [b^d'f'b']7/4 z2 z/4 [bd'f'b']7/4 z2 |[K:bass] !////-!B,,4 B,4 |] %49
V:2
 (6:4:6(B,,F,B,[K:treble]DFB (6:4:6dBF[K:bass]DB,F,) | !////-![D,F,]2 B,,2 !////-![E,G,]2 B,,2 | %2
 !////-![D,F,]4 B,,4 | %3
 !////-![D,F,]2 B,,2 !////-![B,,=F,] ^G,, !///-![B,,E,]/=G,,/ !///-![^A,,E,]/F,,/ | %4
 !////-![B,,D,] G,, !////-![G,B,] B,, !////-![F,A,] B,, !////-!C [B,,C,] | %5
 !////-![D,F,] B,, !////-![D,F,] [A,,B,,] !////-![B,,=F,] ^G,, !////-![B,,E,] =G,, | %6
 !////-![B,,D,] F,, !////-![^G,,B,,] F,, !////-![C,E,] [F,,^A,,] !////-![B,,D,] F,, | %7
 !////-![^A,,E,] F,, !////-![B,,D,] F,, !////-![B,,D,] =F,, !///-![B,,E,]/E,,/ !///-![A,,E,]/E,,/ | %8
 !////-![D,F,] [F,,B,,] !////-!F, B,, !>!.[B,,B,]/ !//-![B,,D,]3/4[F,B,]3/4 !///-![F,B,] [B,,D,] | %9
 !////-![E,A,]4 C,4 | !////-![F,A,]4 C,4 | !////-![G,B,]4 E,4 | [^E,^G,C]4 [C,F,^A,]2 [D,F,]2 | %13
 !////-![E,A,]4 C,4 | !////-![F,A,]4 C,4 | !////-![G,B,]4 E,4 |!<(! !////-![G,=C]4 =C,4 | %17
 !////-![^G,C]2 [C,^E,]2 !////-![^A,C]2!<)!!mf! [C,=E,]2 | %18
!f! !////-![B,D]2 [D,F,]2 !////-![B,E]2 G,2 | !////-![DF]4 [F,B,]4 | %20
 !////-![DF]2 [F,B,]2 !////-![DG] [G,B,] !////-![E^A] ^A, | %21
 !////-![FB]2 [B,D]2 !////-![GB]2 [B,E]2 | !////-![B,D]2 [D,F,]2 !////-![B,E]2 G,2 | %23
 !////-![DF]4 [F,B,]4 | !////-![DF]2 [F,B,]2 !////-![DG] [G,B,] !////-![E^A] ^A, | %25
[K:Cb]!p! (C,/E,/G,/C/) (C,/E,/G,/C/) (C,/E,/G,/C/) (C,/E,/G,/C/) | %26
 (C,/F,/G,/B,/) (C,/F,/G,/B,/) (C,/F,/G,/B,/) (C,/F,/G,/B,/) | %27
 (C,/E,/G,/C/) (C,/E,/G,/C/) (C,/E,/G,/C/) (C,/E,/G,/C/) | %28
 (C,/F,/G,/B,/) (C,/F,/G,/B,/) (C,/F,/G,/B,/) (C,/F,/G,/B,/) | %29
 (C,/E,/G,/C/) (C,/E,/G,/C/) (C,/E,/G,/C/) (C,/E,/G,/C/) | %30
 (3(F,B,D) (3(F,B,D) (3(C,B,D) (3(C,B,D) | (3(E,__B,=C) (3(E,B,C) (3(D,A,D) (3(D,A,D) | %32
 (3(G,A,F) (3(G,A,F) (3(G,B,F) (3(G,B,F) |[K:treble] (3(Gce) (3(EGc) (3(CEG) (3(G,CE) | %34
[K:bass] (C,/F,/G,/B,/) (C,/F,/G,/B,/) (C,/F,/G,/B,/) (C,/F,/G,/B,/) | %35
 (C,/E,/G,/C/) (C,/E,/G,/C/) (C,/E,/G,/C/) (C,/E,/G,/C/) | %36
 (C,/F,/G,/B,/) (C,/F,/G,/B,/) (C,/F,/G,/B,/) (C,/F,/G,/B,/) | %37
 (C,/E,/G,/C/) (C,/E,/G,/C/) (C,/E,/G,/C/) (C,/E,/G,/C/) | %38
 (3(F,B,D) (3(F,B,D) (3(C,B,D) (3(C,B,D) | (3(E,__B,=C) (3(E,B,C) (3(D,A,D) (3(D,A,D) | %40
 (3(G,A,F) (3(G,A,F) (3(G,B,F) (3(G,B,F) | %41
[K:D]!ff! [_C,,_C,]!ff![C,_C][_B,,_B,][_A,,_A,] [_G,,_G,][A,,A,][G,,G,][_F,,_F,] | %42
 [_E,,_E,][_A,,_A,][_G,,_G,][_F,,_F,] [E,,E,][F,,F,][E,,E,][_D,,_D,] | %43
 [_C,,_C,][C,_C][_B,,_B,][_A,,_A,] [_G,,_G,][A,,A,][G,,G,][_F,,_F,] | %44
 [_E,,_E,][_A,,_A,][_G,,_G,][_F,,_F,] [E,,E,][F,,F,][E,,E,][_D,,_D,] |!f! !////-!_C,,4 _C,4 | %46
 !////-!_C,,4 _C,4 | !////-!_C,,4 _C,4 |!mp! !////-![_C,,_E,,]4 [_G,,_C,]4 |] %49
V:3
 z8 | z4 (6:4:6EGBegb | z8 | z4 (3B,Bb z2 | %4
 (f'/4d'/4b/4f/4) z z2 z[K:bass] (D/4B,/4F,/4D,/4)[K:treble] (B/4G/4E/4B,/4[K:bass]E,/4G,/4B,/4E/4) | %5
 (9:8:6(B,,/4D,/4F,/4B,/4) z z/4 z2 z4 | z8 | z8 | z8 | !>![A,,A,] z z2 !>![G,,G,] z z2 | %10
 !>![F,,F,] z z2 z4 | !>![E,,E,] z z2 !>![D,,D,] z z2 | %12
 !>![C,,C,] z z2 !>![F,,F,] z !>![B,,,B,,] z | !>!A,, z !>![A,,A,] z !>![G,,G,] z z2 | %14
 !>![F,,F,] z z2 z4 | !>![E,,E,] z z2 !>![D,,D,] z z2 | %16
 !>![=C,,=C,] z !>![C,=C] z !>![_B,,_B,] z z2 | !>![^G,,^G,] z z2 !>![F,,F,] z z2 | %18
!ff! !>![F,B,F]4 ([B,,B,][C,C][D,D][E,E]) | (!>![F,B,F]3 [D,D]) ([F,F]3 [D,D]) | %20
 (!>![F,B,DF]3 [B,,B,]) (!>![D,E,G,B,D][^A,,^A,][G,,G,][D,D]) | %21
 !>![B,,-D,F,B,-]4 ([B,,B,][C,C][D,D][E,E]) | !>![F,B,F]4 ([B,,B,][C,C][D,D][E,E]) | %23
 (!>![F,B,F]3 [D,D]) ([F,F]3 [D,D]) | %24
 (!>![F,B,DF]3 [B,,B,]) (!>![D,E,G,B,D][^A,,^A,][G,,G,][D,D]) | %25
[K:Cb][K:treble]!mf! !>![^F,=B,^D^F]6 z2 | [=E^A=e]8 | [^D=B^d]8 | [=E^A=e]8 | [^D=B^d]8 | %30
 [=E^A=e]8 | [^D=A^B]4 [^C^G^c]4 | [^G,^F^G]4 [=EF^A]4 | [^D^F=B]8 | [=E^A=e]8 | [^D=B^d]8 | %36
 [=E^A=e]8 | [^D=B^d]8 | [=E^A=e]8 | [^D=A^B]4 [^C^G^c]4 | [^G,^F^G]4 [=EF^A]4 | %41
[K:D] [B,^D] z z2 [B,D^G]2 z2 | [^DF^A]2 z2 [FA^d]2 z2 | [B^df]2 z2 [B,^D^G]2 z2 | %44
 [^DF^A]2 z2 [FA^d]2 z2 | [B,^DF]/4[FB^df]7/4 z2 [B,DF]/4[FBdf]7/4 z2 | %46
 [B,^DF]/4[FB^df]7/4 [B,DF]/4[FBdf]7/4 [B,DF]/4[FBdf]7/4 [B,DF]/4[FBdf]7/4 | %47
 [B,^DF]/4[FB^df]7/4 z2 [B,DF]/4[FBdf]7/4 z2 | z8 |] %49
V:4
 x8 |[K:treble] (6:4:6z DFBdf z4 | (6:4:6z FBdfb (6:4:6d'bfdBF | (6:4:6z FBdfb z4 | %4
 z (d/4B/4F/4D/4) (b/4g/4e/4B/4G/4E/4B,/4G,/4) (f/4d/4B/4F/4) z z2 | %5
 (9:8:6z (D/4F/4B/4d/4f/4 b) z z4 | x8 | x8 | x8 | (3z CE (3AEC (3z CE (3AEc | %10
 (6:4:6z A,CFAc f z z2 | (6:4:6z B,EGBe g z z2 | (6:4:6z ^Gc^e^gc' f' z z2 | %13
 (3z CE (3AEC (3z CE (3AEc | (6:4:6z A,CFAc f z z2 | (6:4:6z B,EGBe (6:4:6z G,B,GB=f | %16
 (6:4:6z G,=CEG=c z z z2 | x8 | x8 | x8 | x8 | x8 | x8 | x8 | x8 |[K:Cb] x8 | x8 | x8 | x8 | x8 | %30
 x8 | x8 | x8 | x8 | x8 | x8 | x8 | x8 | x8 | x8 | x8 |[K:D] x8 | x8 | x8 | x8 | x8 | x8 | x8 | %48
[K:bass] x8 |] %49
V:5
 x2[K:treble] x4[K:bass] x2 | x8 | x8 | x8 | x8 | x8 | x8 | x8 | x8 | x8 | x8 | x8 | x8 | x8 | x8 | %15
 x8 | x8 | x8 | x8 | x8 | x8 | x8 | x8 | x8 | x8 |[K:Cb] x8 | z6 (!>!G,2 | %27
 !>!A,2 !>!B,2 !>!C2) (!>!D!>!E | !>!F2) z2 z2 (!>!G,2 | !>!A,2 !>!B,2 !>!C2) (!>!D!>!E | %30
 !>!F2) z2 z2 !>!G,2 | x8 | x8 |[K:treble] x8 |[K:bass] z6 (!>!G,2 | %35
 !>!A,2 !>!B,2 !>!C2) (!>!D!>!E | !>!F2) z2 z2 (!>!G,2 | !>!A,2 !>!B,2 !>!C2) (!>!D!>!E | %38
 !>!F2) z2 z2 !>!G,2 | x8 | x8 |[K:D] x8 | x8 | x8 | x8 | x8 | x8 | x8 | x8 |] %49

